X: 9
T: Rock-a-bye Baby.
C: Old Tune.
%R: waltz
B: "The Everyday Song Book", 1927
F: http://www.library.pitt.edu/happybirthday/pdf/The_Everyday_Song_Book.pdf
Z: 2015 John Chambers <jc:trillian.mit.edu>
M: 6/8
L: 1/8
K: Bb
% - - - - - - - - - - - - - - - - - - - - - - - - - - - - -
[|\
D> F d c2 B | D> F B A3 | E> F e
w: Rock-a-bye ba-by on the tree top, When the wind
%
d2 c | c B G F3 | D> F d c2 B |
w: blows the cra-dle will rock, When the bough breaks the
%
D> F B A2 G | F B e d B2 | c G A B2 z |]
w: cra-dle will fall and down will come ba-by, cra-dle, and all.
% - - - - - - - - - - - - - - - - - - - - - - - - - - - - -
